img/left_b_cubes.svg

<svg width="507" height="822" viewBox="0 0 507 822" fill="none" xmlns="http://www.w3.org/2000/svg">
<g clip-path="url(#clip0)">
<path d="M126.125 228.83L202.049 274.384V365.493L126.125 319.939V228.83Z" fill="#7BA7D3"/>
<path d="M50.2017 365.493L126.126 319.939L202.049 365.493L126.126 411.047L50.2017 365.493Z" fill="#6699CB"/>
<path d="M-101.646 183.276L-25.7222 137.721L50.2017 183.276L-25.7222 228.83L-101.646 183.276Z" fill="#6699CB"/>
<path d="M202.049 92.1672L277.973 137.722V228.83L202.049 183.276V92.1672Z" fill="#7BA7D3"/>
<path d="M353.897 365.493L277.973 411.047V502.156L353.897 456.602V365.493Z" fill="#6699CB"/>
<path d="M202.049 638.819L126.125 684.373V775.482L202.049 729.927V638.819Z" fill="#6699CB"/>
<path d="M202.049 456.602L126.126 502.156L50.2017 456.602V365.493L126.126 319.939L202.049 365.493V456.602Z" stroke="#2F6799" stroke-miterlimit="10"/>
<path d="M126.126 502.156L50.2017 547.71L-25.7222 502.156V411.047L50.2017 365.493L126.126 411.047V502.156Z" stroke="#4C6B89" stroke-miterlimit="10"/>
<path d="M50.2017 456.602L-25.7222 502.156L-101.646 456.602V365.493L-25.7222 319.939L50.2017 365.493V456.602Z" stroke="#2F6799" stroke-miterlimit="10"/>
<path d="M126.126 319.939L50.2017 365.493L-25.7222 319.939V228.83L50.2017 183.276L126.126 228.83V319.939Z" stroke="#2F6799" stroke-miterlimit="10"/>
<path d="M-25.7222 137.721L50.2017 183.276V274.384L-25.7222 319.939L-101.646 274.384V183.276" stroke="#2F6799" stroke-miterlimit="10"/>
<path d="M50.2017 365.493V274.384L126.126 228.83L202.049 274.384V365.493" stroke="#2F6799" stroke-miterlimit="10"/>
<path d="M277.973 319.939L202.049 365.493L126.125 319.939V228.83L202.049 183.276L277.973 228.83V319.939Z" stroke="#2F6799" stroke-miterlimit="10"/>
<path d="M353.897 92.1671L277.973 46.6128L202.049 92.1671M353.897 183.276L277.973 228.83L353.897 183.276Z" stroke="#2F6799" stroke-miterlimit="10"/>
<path d="M277.973 228.83V137.722L353.897 92.1672L429.821 137.722V228.83L353.897 274.384" stroke="#2F6799" stroke-miterlimit="10"/>
<path d="M202.049 365.493L277.973 411.047V502.156" stroke="#2F6799" stroke-miterlimit="10"/>
<path d="M353.897 456.602L277.973 502.156L202.049 456.602V365.493L277.973 319.939L353.897 365.493V456.602Z" stroke="#4C6B89" stroke-miterlimit="10"/>
<path d="M202.049 638.819L126.126 684.373L50.2017 638.819V547.71L126.126 502.156L202.049 547.71V638.819Z" stroke="#2F6799" stroke-miterlimit="10"/>
<path d="M-25.7222 684.373V593.265L50.2017 547.71L126.126 593.265V684.373L50.2017 729.928" stroke="#2F6799" stroke-miterlimit="10"/>
<path d="M50.2017 547.71V638.819L-25.7222 684.373L-101.646 638.819V547.71" stroke="#2F6799" stroke-miterlimit="10"/>
<path d="M202.049 729.928L126.126 775.482L50.2017 729.928V638.819L126.126 593.265L202.049 638.819V729.928Z" stroke="#2F6799" stroke-miterlimit="10"/>
</g>
<defs>
<clipPath id="clip0">
<rect x="-254" y="0.623291" width="760.251" height="821" fill="white"/>
</clipPath>
</defs>
</svg>

<svg width="507" height="822" fill="none" xmlns="http://www.w3.org/2000/svg"><g clip-path="url(#clip0)"><path d="M126.125 228.83l75.924 45.554v91.109l-75.924-45.554V228.83z" fill="#7BA7D3"/><path d="M50.202 365.493l75.924-45.554 75.923 45.554-75.923 45.554-75.924-45.554zM-101.646 183.276l75.924-45.555 75.924 45.555-75.924 45.554-75.924-45.554z" fill="#6699CB"/><path d="M202.049 92.167l75.924 45.555v91.108l-75.924-45.554V92.167z" fill="#7BA7D3"/><path d="M353.897 365.493l-75.924 45.554v91.109l75.924-45.554v-91.109zM202.049 638.819l-75.924 45.554v91.109l75.924-45.555v-91.108z" fill="#6699CB"/><path d="M202.049 456.602l-75.923 45.554-75.924-45.554v-91.109l75.924-45.554 75.923 45.554v91.109z" stroke="#2F6799" stroke-miterlimit="10"/><path d="M126.126 502.156L50.202 547.71l-75.924-45.554v-91.109l75.924-45.554 75.924 45.554v91.109z" stroke="#4C6B89" stroke-miterlimit="10"/><path d="M50.202 456.602l-75.924 45.554-75.924-45.554v-91.109l75.924-45.554 75.924 45.554v91.109z" stroke="#2F6799" stroke-miterlimit="10"/><path d="M126.126 319.939l-75.924 45.554-75.924-45.554V228.83l75.924-45.554 75.924 45.554v91.109z" stroke="#2F6799" stroke-miterlimit="10"/><path d="M-25.722 137.721l75.924 45.555v91.108l-75.924 45.555-75.924-45.555v-91.108" stroke="#2F6799" stroke-miterlimit="10"/><path d="M50.202 365.493v-91.109l75.924-45.554 75.923 45.554v91.109" stroke="#2F6799" stroke-miterlimit="10"/><path d="M277.973 319.939l-75.924 45.554-75.924-45.554V228.83l75.924-45.554 75.924 45.554v91.109zM353.897 92.167l-75.924-45.554-75.924 45.554m151.848 91.109l-75.924 45.554 75.924-45.554zM277.973 228.83v-91.108l75.924-45.555 75.924 45.555v91.108l-75.924 45.554" stroke="#2F6799" stroke-miterlimit="10"/><path d="M202.049 365.493l75.924 45.554v91.109" stroke="#2F6799" stroke-miterlimit="10"/><path d="M353.897 456.602l-75.924 45.554-75.924-45.554v-91.109l75.924-45.554 75.924 45.554v91.109z" stroke="#4C6B89" stroke-miterlimit="10"/><path d="M202.049 638.819l-75.923 45.554-75.924-45.554V547.71l75.924-45.554 75.923 45.554v91.109z" stroke="#2F6799" stroke-miterlimit="10"/><path d="M-25.722 684.373v-91.108l75.924-45.555 75.924 45.555v91.108l-75.924 45.555" stroke="#2F6799" stroke-miterlimit="10"/><path d="M50.202 547.71v91.109l-75.924 45.554-75.924-45.554V547.71M202.049 729.928l-75.923 45.554-75.924-45.554v-91.109l75.924-45.554 75.923 45.554v91.109z" stroke="#2F6799" stroke-miterlimit="10"/></g><defs><clipPath id="clip0"><path fill="#fff" d="M-254 .623h760.251v821H-254z"/></clipPath></defs></svg>
